icon-themes/breeze_svg/cmd/sc_paragraphdialog.svg

<svg viewBox="0 0 16 16" xmlns="http://www.w3.org/2000/svg"><path d="m8 2c-2.20914 0-4 1.79085-4 4s1.79086 4 4 4v1 3h1v-3-8h1v8 3h1v-3-9h-2z" fill="#4d4d4d"/><path d="m13 2c-.55228 0-1 .44772-1 1s.44772 1 1 1 1-.44772 1-1-.44772-1-1-1zm0 3c-.55228 0-1 .44772-1 1s.44772 1 1 1 1-.44772 1-1-.44772-1-1-1zm0 3c-.55228 0-1 .44772-1 1s.44772 1 1 1 1-.44772 1-1-.44772-1-1-1z" fill="#f47750"/></svg>

<svg xmlns="http://www.w3.org/2000/svg" viewBox="0 0 16 16">
 <path 
     style="fill:#4d4d4d" 
     d="M 8 2 C 5.79086 2 4 3.79085 4 6 C 4 8.20915 5.79086 10 8 10 L 8 11 L 8 14 L 9 14 L 9 11 L 9 3 L 10 3 L 10 11 L 10 14 L 11 14 L 11 11 L 11 2 L 9 2 L 8 2 z "
     />
 <path 
     style="fill:#f47750" 
     d="M 13 2 C 12.44772 2 12 2.44772 12 3 C 12 3.55228 12.44772 4 13 4 C 13.55228 4 14 3.55228 14 3 C 14 2.44772 13.55228 2 13 2 z M 13 5 C 12.44772 5 12 5.44772 12 6 C 12 6.55228 12.44772 7 13 7 C 13.55228 7 14 6.55228 14 6 C 14 5.44772 13.55228 5 13 5 z M 13 8 C 12.44772 8 12 8.44772 12 9 C 12 9.55228 12.44772 10 13 10 C 13.55228 10 14 9.55228 14 9 C 14 8.44772 13.55228 8 13 8 z "
     />
 </svg>
